iconography/32x32/Rust.svg

<svg width="32" height="32" viewBox="0 0 32 32" fill="none" xmlns="http://www.w3.org/2000/svg">
<path d="M27.2762 24.3851C27.09 24.3851 26.8107 24.3851 26.6245 24.3851C26.5314 24.3851 26.5314 24.3851 26.4383 24.4783C26.2521 24.5714 26.2521 24.7578 26.3452 24.9441C26.4383 25.3168 26.5314 25.6894 26.6245 26.0621C26.7176 26.4348 26.4383 26.6211 26.0659 26.6211C25.6005 26.5279 25.2281 26.4348 24.7626 26.3416C24.5764 26.3416 24.3902 26.5279 24.3902 26.6211C24.3902 26.9938 24.3902 27.4596 24.3902 27.8323V27.9255C24.3902 28.2981 24.1109 28.4845 23.7386 28.3913C23.3662 28.205 22.9007 28.0186 22.5283 27.8323C22.4352 27.8323 22.3421 27.8323 22.249 27.8323C22.0628 27.9255 22.0628 28.0186 21.9697 28.205C21.8766 28.5776 21.8766 28.9503 21.7836 29.4161C21.6905 29.7888 21.4112 29.882 21.0388 29.6957C20.6664 29.4161 20.294 29.1366 20.0147 28.9503C19.9216 28.8571 19.5493 28.9503 19.5493 29.1366C19.3631 29.5093 19.27 29.9752 19.0838 30.3478C18.8976 30.7205 18.6183 30.8137 18.339 30.5342C18.0597 30.2547 17.7804 29.882 17.4081 29.6025C17.315 29.5093 17.0357 29.5093 16.9426 29.6957C16.7564 30.0683 16.4771 30.3478 16.2909 30.7205C16.1047 31.0932 15.6393 31.0932 15.4531 30.7205C15.2669 30.3478 14.9876 29.9752 14.8014 29.6957C14.8014 29.6025 14.7083 29.6025 14.6152 29.6025C14.429 29.6025 14.3359 29.6025 14.1497 29.7888C13.8704 30.0683 13.5912 30.3478 13.405 30.6273C13.1257 30.9068 12.7533 30.8137 12.6602 30.441C12.474 30.0683 12.3809 29.6025 12.1947 29.2298C12.1016 29.0435 11.8223 28.9503 11.7292 29.0435C11.3569 29.323 10.9845 29.5093 10.7052 29.7888C10.4259 29.9752 10.0535 29.882 9.96043 29.5093C9.86734 29.0435 9.77424 28.6708 9.77424 28.205C9.77424 28.1118 9.68115 28.1118 9.68115 28.0186C9.49496 27.9255 9.40186 27.9255 9.21567 28.0186C8.84329 28.1118 8.47091 28.205 8.09853 28.3913C7.72614 28.5776 7.44686 28.3913 7.44686 27.9255C7.44686 27.5528 7.44686 27.087 7.53995 26.7143C7.53995 26.6211 7.53995 26.5279 7.44686 26.4348C7.35376 26.3416 7.26067 26.3416 7.07448 26.3416C6.70209 26.4348 6.23662 26.5279 5.86424 26.6211C5.49185 26.7143 5.21257 26.4348 5.30566 26.0621C5.39876 25.5963 5.49185 25.2236 5.58495 24.7578C5.58495 24.5714 5.39876 24.3851 5.30566 24.3851C4.84019 24.3851 4.37471 24.3851 4.00233 24.3851C3.72304 24.3851 3.44375 24.1056 3.53685 23.8261C3.53685 23.7329 3.53685 23.7329 3.62995 23.6398C3.81614 23.2671 4.00233 22.8944 4.18852 22.5217C4.18852 22.4286 4.18852 22.4286 4.18852 22.3354C4.09542 22.1491 4.00233 22.0559 3.81614 22.0559C3.44375 21.9627 3.07137 21.9627 2.6059 21.8696C2.23351 21.7764 2.14042 21.4969 2.32661 21.1242C2.6059 20.7516 2.79209 20.3789 3.07137 20.0994C3.16447 20.0062 3.16447 20.0062 3.07137 19.913C3.07137 19.7267 2.97828 19.6335 2.79209 19.5404C2.41971 19.4472 2.04732 19.2609 1.67494 19.1677C1.30256 19.0745 1.20946 18.7019 1.48875 18.4224C1.76804 18.1429 2.14042 17.8634 2.41971 17.4907C2.5128 17.3975 2.5128 17.118 2.32661 17.0248C1.95423 16.7453 1.58185 16.559 1.20946 16.2795C0.930178 16.0932 0.930178 15.7205 1.20946 15.5342C1.58185 15.2547 1.95423 15.0683 2.32661 14.7888C2.41971 14.6957 2.41971 14.6957 2.41971 14.6025C2.41971 14.4161 2.41971 14.323 2.23351 14.2298C1.95423 13.9503 1.67494 13.6708 1.39566 13.4845C1.11637 13.205 1.20946 12.8323 1.58185 12.7391C2.04732 12.646 2.4197 12.4596 2.88518 12.2733C3.07137 12.1801 3.16447 11.9006 3.07137 11.8075C2.79209 11.4348 2.6059 11.0621 2.32661 10.7826C2.14042 10.5031 2.23351 10.1304 2.6059 10.0373C3.07137 9.9441 3.44375 9.85093 3.90923 9.85093C4.00233 9.85093 4.00233 9.75776 4.09542 9.75776C4.18852 9.57143 4.18852 9.47826 4.09542 9.29193C3.81614 8.91925 3.72304 8.54658 3.53685 8.17391C3.35066 7.80124 3.53685 7.52174 4.00233 7.52174C4.4678 7.52174 4.84019 7.52174 5.30566 7.52174C5.39876 7.52174 5.39876 7.52174 5.49185 7.42857C5.58495 7.3354 5.67804 7.14907 5.58495 6.96273C5.49185 6.68323 5.39876 6.31056 5.30566 5.84472C5.21257 5.56522 5.49185 5.28571 5.77114 5.37888C6.23662 5.47205 6.609 5.56522 7.07448 5.65838C7.16757 5.65838 7.26067 5.65839 7.35376 5.56522C7.44686 5.47205 7.53995 5.37888 7.53995 5.28571C7.53995 4.91304 7.53995 4.54037 7.44686 4.1677C7.44686 3.70186 7.72614 3.51553 8.09853 3.70186C8.47091 3.8882 8.84329 4.07453 9.21567 4.26087C9.40186 4.1677 9.68115 4.07453 9.77424 3.8882C9.86734 3.42236 9.96043 3.04969 9.96043 2.58385C10.0535 2.21118 10.3328 2.11801 10.7052 2.30435C11.0776 2.58385 11.45 2.77019 11.7292 3.04969C11.8223 3.14286 11.9154 3.14286 12.0085 3.04969C12.1947 3.04969 12.2878 2.95652 12.2878 2.77019C12.3809 2.39752 12.5671 2.02484 12.6602 1.65217C12.7533 1.2795 13.1257 1.18634 13.405 1.46584C13.6843 1.74534 13.9635 2.11801 14.3359 2.39752C14.429 2.49068 14.429 2.49068 14.5221 2.49068C14.7083 2.49068 14.8014 2.39752 14.8945 2.21118C15.0807 1.83851 15.2669 1.55901 15.4531 1.2795C15.6393 0.906832 16.0116 0.906832 16.1978 1.2795C16.384 1.65217 16.6633 2.02484 16.8495 2.39752C16.8495 2.49068 16.9426 2.49068 17.0357 2.49068C17.2219 2.49068 17.315 2.49068 17.5012 2.30435C17.7804 2.02484 18.0597 1.74534 18.2459 1.46584C18.5252 1.18634 18.8976 1.2795 18.9907 1.65217C19.27 2.11801 19.4562 2.49068 19.6424 2.95652C19.6424 2.95652 19.6424 3.04969 19.7355 3.04969C19.9216 3.14286 20.0147 3.04969 20.2009 2.95652C20.4802 2.67702 20.8526 2.49068 21.1319 2.30435C21.5043 2.02484 21.7836 2.21118 21.8766 2.58385C21.9697 3.04969 22.0628 3.42236 22.0628 3.8882C22.0628 3.98137 22.1559 3.98137 22.1559 4.07453C22.3421 4.1677 22.4352 4.1677 22.6214 4.07453C22.9938 3.8882 23.3662 3.79503 23.7386 3.6087C24.1109 3.42236 24.3902 3.6087 24.3902 4.07453C24.3902 4.54037 24.3902 4.91304 24.2971 5.37888C24.2971 5.47205 24.2971 5.47205 24.3902 5.56522C24.4833 5.65839 24.6695 5.75155 24.8557 5.65838C25.2281 5.56522 25.6005 5.47205 25.9728 5.37888C26.3452 5.28571 26.6245 5.56522 26.5314 5.93789C26.4383 6.40373 26.3452 6.7764 26.2521 7.24224C26.2521 7.3354 26.2521 7.3354 26.2521 7.42857C26.4383 7.52174 26.5314 7.61491 26.7176 7.61491C27.09 7.61491 27.4624 7.61491 27.8348 7.61491C28.2071 7.61491 28.4864 7.89441 28.3002 8.26708C28.114 8.63975 27.9278 9.01242 27.7417 9.38509C27.7417 9.47826 27.7417 9.57143 27.7417 9.6646C27.8348 9.85093 27.9278 9.85093 28.114 9.9441C28.4864 10.0373 28.9519 10.0373 29.3243 10.1304C29.6967 10.2236 29.7898 10.5031 29.6036 10.8758C29.3243 11.2484 29.1381 11.6211 28.8588 11.9006C28.7657 11.9938 28.7657 11.9938 28.8588 12.087C28.8588 12.2733 28.9519 12.3665 29.1381 12.3665C29.5105 12.4596 29.8829 12.646 30.2552 12.7391C30.6276 12.8323 30.7207 13.205 30.4414 13.4845C30.1621 13.764 29.7898 14.0435 29.5105 14.4161C29.4174 14.5093 29.4174 14.7888 29.6036 14.882C29.9759 15.0683 30.3483 15.3478 30.7207 15.5342C31.0931 15.7205 31.0931 16.0932 30.7207 16.3727C30.3483 16.559 29.9759 16.8385 29.6036 17.0248C29.5105 17.0248 29.5105 17.118 29.5105 17.2112C29.5105 17.3975 29.5105 17.4907 29.6967 17.677C29.9759 17.9565 30.2552 18.236 30.5345 18.5155C30.8138 18.795 30.7207 19.1677 30.3483 19.2609C29.9759 19.4472 29.5105 19.5404 29.1381 19.7267C29.045 19.7267 29.045 19.8199 29.045 19.913C28.9519 20.0994 29.045 20.1925 29.1381 20.3789C29.4174 20.6584 29.6036 21.0311 29.7898 21.3106C29.9759 21.5901 29.8829 21.9627 29.5105 22.0559C29.1381 22.1491 28.6726 22.1491 28.3002 22.2422C28.2071 22.2422 28.114 22.3354 28.0209 22.4286C27.9278 22.5217 27.9278 22.6149 28.0209 22.8012C28.2071 23.1739 28.3933 23.5466 28.4864 23.9193C28.6726 24.2919 28.4864 24.5714 28.0209 24.5714C27.6486 24.4783 27.4624 24.4783 27.2762 24.3851ZM27.2762 24.3851C27.2762 24.4783 27.2762 24.4783 27.2762 24.3851ZM26.8107 16.7453C26.8107 16.0932 26.8107 15.5342 26.8107 14.9752C26.8107 14.882 26.8107 14.882 26.7176 14.7888C26.0659 14.5093 25.5074 14.2298 24.8557 13.9503C24.2971 13.764 24.204 13.2981 24.3902 12.7391C24.6695 11.9938 25.0419 11.3416 25.3212 10.5963C25.3212 10.5031 25.3212 10.4099 25.3212 10.4099C23.6455 7.61491 21.225 5.93789 18.0597 5.19255C17.9666 5.19255 17.8735 5.19255 17.8735 5.28571C17.4081 5.75155 16.9426 6.21739 16.4771 6.59006C16.1047 6.96273 15.6393 6.96273 15.2669 6.59006C14.8945 6.21739 14.5221 5.84472 14.1497 5.37888C13.9635 5.19255 13.8704 5.19255 13.5912 5.19255C11.3569 5.75155 9.49496 6.86956 7.91233 8.45342L7.81924 8.54658C7.91234 8.54658 7.91233 8.54658 8.00543 8.54658C11.7292 8.54658 15.4531 8.54658 19.1769 8.54658C19.5493 8.54658 19.9216 8.54658 20.2009 8.63975C21.3181 8.91926 22.249 9.47826 22.9007 10.5031C23.5524 11.4348 23.6455 12.7391 22.8076 13.8571C22.4352 14.4161 21.8766 14.7888 21.3181 15.2547C21.225 15.2547 21.225 15.3478 21.1319 15.3478C21.225 15.441 21.3181 15.441 21.4112 15.5342C21.8766 15.9068 22.249 16.2795 22.4352 16.7453C22.6214 17.2112 22.8076 17.677 22.9007 18.1429C22.9007 18.4224 23.0869 18.5155 23.2731 18.7019C23.5524 18.8882 23.9247 18.8882 24.204 18.8882C24.9488 18.795 25.3212 18.4224 25.4143 17.7702C25.4143 17.4907 25.4143 17.2112 25.4143 16.9317C25.4143 16.7453 25.4143 16.6522 25.6936 16.6522C26.0659 16.7453 26.4383 16.7453 26.8107 16.7453ZM24.6695 22.3354C24.5764 22.3354 24.4833 22.3354 24.4833 22.3354C22.9938 22.3354 21.5974 22.3354 20.1078 22.3354C19.9216 22.3354 19.7355 22.2422 19.5493 22.1491C18.9907 21.7764 18.6183 21.2174 18.4321 20.472C18.339 20.1925 18.339 19.913 18.2459 19.6335C18.1528 19.1677 18.0597 18.6087 17.8735 18.1429C17.5943 17.3043 16.9426 16.8385 16.1047 16.8385C15.2669 16.8385 14.429 16.8385 13.4981 16.8385H13.405C13.405 17.4907 13.405 18.1429 13.405 18.795C13.4981 18.795 13.4981 18.795 13.5912 18.795C14.429 18.795 15.1738 18.795 16.0116 18.795C16.1978 18.795 16.1978 18.795 16.1978 18.9814C16.1978 19.913 16.1978 20.9379 16.1978 21.8696C16.1978 22.1491 16.1978 22.1491 15.9185 22.1491C13.0326 22.1491 10.1466 22.1491 7.26067 22.1491C7.16757 22.1491 7.16757 22.1491 7.07448 22.1491C7.07448 22.2422 7.16757 22.2422 7.16757 22.2422C7.44686 22.5217 7.63305 22.8012 7.91233 23.1739C8.09853 23.4534 8.09853 23.4534 8.19162 23.4534C8.75019 23.3602 9.30877 23.1739 9.86734 23.0807C10.3328 22.9876 10.7983 23.2671 10.8914 23.7329C11.0776 24.3851 11.1707 25.0373 11.2638 25.6894C11.2638 25.7826 11.3569 25.7826 11.3569 25.8758C12.5671 26.4348 13.8704 26.7143 15.2669 26.8075C16.9426 26.9006 18.5252 26.6211 20.1078 25.9689C20.294 25.8758 20.3871 25.7826 20.3871 25.5963C20.4802 24.9441 20.6664 24.3851 20.7595 23.7329C20.8526 23.2671 21.225 23.0807 21.6905 23.1739C22.249 23.2671 22.9007 23.4534 23.4593 23.5466C23.5524 23.5466 23.5524 23.5466 23.6455 23.4534C23.8316 23.2671 23.9247 23.0807 24.1109 22.9876C24.3902 22.8012 24.4833 22.6149 24.6695 22.3354ZM6.98138 11.9006C7.07448 12.1801 7.26067 12.4596 7.35376 12.7391C7.53995 13.205 7.44686 13.6708 6.88829 13.8571C6.32971 14.1366 5.77114 14.4161 5.11947 14.6025C5.02638 14.6025 5.02638 14.6957 5.02638 14.7888C4.93328 15.6273 4.93328 16.3727 5.02638 17.2112C5.11947 17.7702 5.21257 18.3292 5.39876 18.8882C6.42281 18.8882 7.44686 18.8882 8.47091 18.8882C8.47091 16.559 8.47091 14.2298 8.47091 11.9006C8.00543 11.9006 7.53995 11.9006 6.98138 11.9006ZM13.4981 14.0435C14.7083 14.0435 15.8254 14.0435 17.0357 14.0435C17.4081 14.0435 17.6874 13.9503 18.0597 13.764C18.7114 13.3913 18.6183 12.646 18.1528 12.3665C17.8735 12.1801 17.5012 11.9938 17.1288 11.9938C16.0116 11.9938 14.8014 11.9938 13.6843 11.9938H13.5912C13.4981 12.7391 13.4981 13.3913 13.4981 14.0435ZM9.30877 25.9689C9.77424 25.9689 10.2397 25.5963 10.1466 25.0373C10.1466 24.5714 9.77424 24.1988 9.30877 24.1988C8.84329 24.1988 8.37781 24.5714 8.37781 25.0373C8.47091 25.5963 8.84329 25.9689 9.30877 25.9689ZM16.7564 4.63354C16.7564 4.1677 16.384 3.70186 15.9185 3.70186C15.4531 3.70186 15.0807 4.07453 15.0807 4.54037C15.0807 5.00621 15.4531 5.47205 15.9185 5.47205C16.384 5.47205 16.7564 5.09938 16.7564 4.63354ZM25.5074 12.646C25.5074 13.1118 25.8798 13.5776 26.3452 13.5776C26.8107 13.5776 27.1831 13.205 27.2762 12.7391C27.2762 12.2733 26.9038 11.8075 26.4383 11.8075C25.9728 11.8075 25.5074 12.1801 25.5074 12.646ZM23.2731 25.1304C23.2731 24.6646 22.9007 24.1988 22.3421 24.1988C21.8766 24.1988 21.5043 24.5714 21.5043 25.1304C21.5043 25.5963 21.8766 25.9689 22.3421 26.0621C22.9007 26.0621 23.2731 25.5963 23.2731 25.1304ZM5.30566 13.4845C5.77114 13.4845 6.23662 13.1118 6.23662 12.646C6.23662 12.1801 5.86424 11.8075 5.30566 11.8075C4.84019 11.8075 4.37471 12.1801 4.4678 12.7391C4.4678 13.1118 4.84019 13.4845 5.30566 13.4845Z" stroke="#2E3141" stroke-width="1.3" stroke-miterlimit="10" stroke-linecap="round" stroke-linejoin="round"/>
</svg>

<svg width="32" height="32" fill="none" xmlns="http://www.w3.org/2000/svg"><path d="M27.276 24.385h-.651c-.094 0-.094 0-.187.093-.186.093-.186.28-.093.466l.28 1.118c.093.373-.187.56-.56.56-.465-.094-.837-.187-1.302-.28-.187 0-.373.186-.373.28v1.303c0 .373-.28.56-.651.466-.373-.186-.838-.372-1.21-.559h-.28c-.186.093-.186.187-.28.373-.092.373-.092.745-.185 1.211-.093.373-.373.466-.745.28-.373-.28-.745-.56-1.024-.746-.093-.093-.466 0-.466.187-.186.372-.279.838-.465 1.21-.186.373-.466.467-.745.187-.28-.28-.559-.652-.93-.931-.094-.094-.373-.094-.466.093-.187.372-.466.652-.652 1.024-.186.373-.652.373-.838 0-.186-.372-.465-.745-.652-1.024 0-.094-.093-.094-.186-.094-.186 0-.28 0-.465.187-.28.28-.559.559-.745.838-.28.28-.652.187-.745-.186-.186-.373-.28-.838-.465-1.211-.093-.186-.373-.28-.466-.186-.372.279-.744.465-1.024.745-.28.186-.652.093-.745-.28-.093-.465-.186-.838-.186-1.304 0-.093-.093-.093-.093-.186-.186-.093-.28-.093-.465 0-.373.093-.745.186-1.117.372-.373.187-.652 0-.652-.465 0-.373 0-.839.093-1.212 0-.093 0-.186-.093-.28-.093-.092-.186-.092-.373-.092-.372.093-.837.186-1.21.28-.372.092-.651-.187-.558-.56.093-.466.186-.838.279-1.304 0-.187-.186-.373-.28-.373H4.003c-.279 0-.558-.28-.465-.559 0-.093 0-.093.093-.186l.559-1.118v-.187c-.094-.186-.187-.28-.373-.28-.372-.092-.745-.092-1.21-.185-.372-.094-.466-.373-.28-.746.28-.372.466-.745.745-1.025.093-.093.093-.093 0-.186 0-.186-.093-.28-.279-.373-.372-.093-.745-.28-1.117-.372-.372-.093-.466-.466-.186-.746.279-.28.651-.559.93-.931.094-.093.094-.373-.092-.466-.373-.28-.745-.466-1.118-.745a.436.436 0 0 1 0-.746c.373-.28.745-.466 1.118-.745.093-.093.093-.093.093-.187 0-.186 0-.279-.186-.372-.28-.28-.56-.56-.838-.745-.28-.28-.187-.653.186-.746.465-.093.838-.28 1.303-.466.186-.093.28-.372.186-.466-.279-.372-.465-.745-.744-1.024-.187-.28-.093-.653.279-.746.465-.093.838-.186 1.303-.186.093 0 .093-.093.186-.093.094-.187.094-.28 0-.466-.279-.373-.372-.745-.558-1.118-.186-.373 0-.652.465-.652h1.304c.093 0 .093 0 .186-.093.093-.094.186-.28.093-.466a9.674 9.674 0 0 1-.28-1.118c-.092-.28.187-.56.466-.466.466.093.838.186 1.303.28.094 0 .187 0 .28-.094.093-.093.186-.186.186-.28 0-.372 0-.745-.093-1.117 0-.466.28-.652.652-.466l1.117.559c.186-.093.465-.186.558-.373.093-.466.186-.838.186-1.304.093-.373.373-.466.745-.28.373.28.745.466 1.024.746.093.093.186.093.28 0 .186 0 .279-.093.279-.28.093-.372.28-.745.372-1.118.093-.372.466-.466.745-.186.28.28.559.652.93.932.094.093.094.093.187.093.186 0 .28-.093.373-.28.186-.372.372-.652.558-.931.186-.373.559-.373.745 0 .186.372.465.745.651 1.118 0 .093.094.093.187.093.186 0 .279 0 .465-.187.28-.28.559-.559.745-.838.28-.28.652-.186.745.186.279.466.465.839.651 1.305 0 0 0 .093.093.093.187.093.28 0 .466-.093.28-.28.652-.466.93-.653.373-.28.653-.093.746.28.093.466.186.838.186 1.304 0 .093.093.093.093.187.186.093.28.093.465 0 .373-.187.745-.28 1.118-.466.372-.187.651 0 .651.466 0 .465 0 .838-.093 1.304 0 .093 0 .093.093.186s.28.187.466.093l1.117-.28c.372-.092.652.187.558.56-.093.466-.186.838-.279 1.304v.187c.186.093.28.186.466.186h1.117c.372 0 .651.28.465.652l-.558 1.118v.28c.093.186.186.186.372.28.372.092.838.092 1.21.185.373.094.466.373.28.746-.28.372-.466.745-.745 1.025-.093.093-.093.093 0 .186 0 .186.093.28.28.28.372.093.744.279 1.116.372.373.093.466.466.186.745-.279.28-.651.56-.93.932-.094.093-.094.373.093.466.372.186.744.466 1.117.652.372.186.372.56 0 .839-.373.186-.745.465-1.117.652-.093 0-.093.093-.093.186 0 .187 0 .28.186.466l.838.838c.279.28.186.653-.187.746-.372.186-.837.28-1.21.466-.093 0-.093.093-.093.186-.093.186 0 .28.093.466.28.28.466.652.652.932s.093.652-.28.745c-.372.093-.837.093-1.21.186-.093 0-.186.093-.28.187-.092.093-.092.186 0 .372.187.373.373.746.466 1.118.187.373 0 .652-.465.652-.372-.093-.559-.093-.745-.186Zm0 0c0 .093 0 .093 0 0Zm-.465-7.64v-1.77c0-.093 0-.093-.093-.186-.652-.28-1.21-.56-1.862-.839-.559-.186-.652-.652-.466-1.21.28-.746.652-1.398.931-2.144v-.186c-1.676-2.795-4.096-4.472-7.261-5.217-.093 0-.186 0-.186.093-.466.466-.931.931-1.397 1.304-.372.373-.838.373-1.21 0s-.745-.745-1.117-1.211c-.187-.186-.28-.186-.559-.186-2.234.559-4.096 1.677-5.679 3.26l-.093.094h11.358c.372 0 .745 0 1.024.093 1.117.28 2.048.838 2.7 1.863.651.932.744 2.236-.093 3.354-.373.56-.931.932-1.49 1.398-.093 0-.093.093-.186.093.093.093.186.093.28.186.465.373.837.745 1.023 1.211.186.466.373.932.466 1.398 0 .28.186.372.372.559.28.186.652.186.931.186.745-.093 1.117-.466 1.21-1.118v-.838c0-.187 0-.28.28-.28.372.093.744.093 1.117.093Zm-2.142 5.59h-4.561c-.186 0-.373-.093-.559-.186-.558-.373-.93-.932-1.117-1.677-.093-.28-.093-.559-.186-.838-.093-.466-.186-1.025-.372-1.491-.28-.839-.931-1.305-1.77-1.305h-2.699v1.957h2.606c.187 0 .187 0 .187.186v2.889c0 .28 0 .28-.28.28H7.075c0 .092.094.092.094.092.279.28.465.56.744.932.187.28.187.28.28.28.558-.094 1.117-.28 1.675-.373.466-.093.931.186 1.024.652.187.652.28 1.304.373 1.956 0 .094.093.094.093.187 1.21.559 2.513.838 3.91.931 1.676.094 3.258-.186 4.84-.838.187-.093.28-.186.28-.373.093-.652.28-1.21.372-1.863.094-.466.466-.652.931-.56.559.094 1.21.28 1.77.374.092 0 .092 0 .185-.094.187-.186.28-.372.466-.465.28-.187.372-.373.558-.653ZM6.982 11.901c.093.28.28.559.373.838.186.466.093.932-.466 1.118-.558.28-1.117.56-1.769.745-.093 0-.093.094-.093.187a10.54 10.54 0 0 0 0 2.422c.093.56.187 1.118.373 1.677h3.07v-6.987H6.98Zm6.517 2.143h3.538c.372 0 .651-.094 1.024-.28.651-.373.558-1.118.093-1.397-.28-.187-.652-.373-1.024-.373h-3.54c-.093.745-.093 1.397-.093 2.05Zm-4.19 11.925c.466 0 .932-.373.839-.932a.835.835 0 0 0-.838-.838c-.466 0-.931.372-.931.838.093.56.465.932.93.932Zm7.448-21.335c0-.466-.372-.932-.838-.932a.835.835 0 0 0-.837.838c0 .466.372.932.838.932a.835.835 0 0 0 .837-.838Zm8.751 8.012c0 .466.373.932.838.932.466 0 .838-.373.931-.839 0-.466-.372-.932-.838-.932-.465 0-.93.373-.93.839ZM23.273 25.13a.933.933 0 0 0-.93-.931c-.466 0-.839.372-.839.931 0 .466.373.839.838.932a.933.933 0 0 0 .931-.932ZM5.306 13.485c.465 0 .93-.373.93-.839 0-.466-.372-.839-.93-.839-.466 0-.931.373-.838.932 0 .373.372.745.838.745Z" stroke="#2E3141" stroke-width="1.3" stroke-miterlimit="10" stroke-linecap="round" stroke-linejoin="round"/></svg>
